X: 8863
T: Cullen Bay
R: reel
M: 4/4
K: Amixolydian
|:A3B cA3|c3B A4|c3d ec3|d3f e4|
f3a ec3|d3e cA3|A3B ca3|B3c A4:|
f3g a3e|f3a ec3|A3B ca3|d3f e4|
f3g a3e|f3a ec3|c3d ec3|B3c A4|
f3g a3e|f3a ec3|A3B ca3|d3f e4|
f3a ec3|d3e cA3|c3d ea3|B3c A4|

